img/tailwindcss-mark.svg

<svg xmlns="http://www.w3.org/2000/svg" fill="none" viewBox="0 0 54 33"><g clip-path="url(#prefix__clip0)"><path fill="#38bdf8" fill-rule="evenodd" d="M27 0c-7.2 0-11.7 3.6-13.5 10.8 2.7-3.6 5.85-4.95 9.45-4.05 2.054.513 3.522 2.004 5.147 3.653C30.744 13.09 33.808 16.2 40.5 16.2c7.2 0 11.7-3.6 13.5-10.8-2.7 3.6-5.85 4.95-9.45 4.05-2.054-.513-3.522-2.004-5.147-3.653C36.756 3.11 33.692 0 27 0zM13.5 16.2C6.3 16.2 1.8 19.8 0 27c2.7-3.6 5.85-4.95 9.45-4.05 2.054.514 3.522 2.004 5.147 3.653C17.244 29.29 20.308 32.4 27 32.4c7.2 0 11.7-3.6 13.5-10.8-2.7 3.6-5.85 4.95-9.45 4.05-2.054-.513-3.522-2.004-5.147-3.653C23.256 19.31 20.192 16.2 13.5 16.2z" clip-rule="evenodd"/></g><defs><clipPath id="prefix__clip0"><path fill="#fff" d="M0 0h54v32.4H0z"/></clipPath></defs></svg>

<?xml version="1.0" encoding="UTF-8" standalone="no"?>
<svg
   fill="none"
   viewBox="0 0 54 54"
   version="1.1"
   id="svg11"
   sodipodi:docname="tailwindcss-mark.svg"
   inkscape:version="1.2.1 (9c6d41e410, 2022-07-14)"
   width="54"
   height="54"
   xmlns:inkscape="http://www.inkscape.org/namespaces/inkscape"
   xmlns:sodipodi="http://sodipodi.sourceforge.net/DTD/sodipodi-0.dtd"
   xmlns="http://www.w3.org/2000/svg"
   xmlns:svg="http://www.w3.org/2000/svg">
  <sodipodi:namedview
     id="namedview13"
     pagecolor="#ffffff"
     bordercolor="#000000"
     borderopacity="0.25"
     inkscape:showpageshadow="2"
     inkscape:pageopacity="0.0"
     inkscape:pagecheckerboard="0"
     inkscape:deskcolor="#d1d1d1"
     showgrid="false"
     showguides="true"
     inkscape:zoom="4.9772727"
     inkscape:cx="73.534247"
     inkscape:cy="28.931507"
     inkscape:window-width="1600"
     inkscape:window-height="837"
     inkscape:window-x="-8"
     inkscape:window-y="-8"
     inkscape:window-maximized="1"
     inkscape:current-layer="svg11">
    <sodipodi:guide
       position="0.19632887,21.182038"
       orientation="0,-1"
       id="guide2515"
       inkscape:locked="false" />
  </sodipodi:namedview>
  <rect
     style="fill:#fcffff;fill-rule:evenodd;stroke-width:9.86326;stroke-linecap:round;stroke-linejoin:round"
     id="rect2513"
     width="54"
     height="54"
     x="0"
     y="0" />
  <g
     clip-path="url(#prefix__clip0)"
     id="g4"
     transform="translate(0,10.72831)">
    <path
       fill="#38bdf8"
       fill-rule="evenodd"
       d="M 27,0 C 19.8,0 15.3,3.6 13.5,10.8 16.2,7.2 19.35,5.85 22.95,6.75 25.004,7.263 26.472,8.754 28.097,10.403 30.744,13.09 33.808,16.2 40.5,16.2 47.7,16.2 52.2,12.6 54,5.4 51.3,9 48.15,10.35 44.55,9.45 42.496,8.937 41.028,7.446 39.403,5.797 36.756,3.11 33.692,0 27,0 Z M 13.5,16.2 C 6.3,16.2 1.8,19.8 0,27 c 2.7,-3.6 5.85,-4.95 9.45,-4.05 2.054,0.514 3.522,2.004 5.147,3.653 2.647,2.687 5.711,5.797 12.403,5.797 7.2,0 11.7,-3.6 13.5,-10.8 -2.7,3.6 -5.85,4.95 -9.45,4.05 C 28.996,25.137 27.528,23.646 25.903,21.997 23.256,19.31 20.192,16.2 13.5,16.2 Z"
       clip-rule="evenodd"
       id="path2" />
  </g>
  <defs
     id="defs9">
    <clipPath
       id="prefix__clip0">
      <path
         fill="#ffffff"
         d="M 0,0 H 54 V 32.4 H 0 Z"
         id="path6" />
    </clipPath>
  </defs>
</svg>
